X:3248
L:1/8
Q:1/4=120
M:2/2
K:C
"^Moderately Quick" ef |"^*" g2 gf gagd | e6 d2 | cdcA cdcA | G6 EF | GEGA cAcd | edeg- gage | 
 dcde a b3 | g6 ef | gage gagd | e6 dc- | cdcA cdcA | G4- GAcA | GEGA cAcd | edeg- g2 !slide!e2 | 
 !slide!edcA c d3 | c6 || ef | g2 gf g2 gf | gagd ecdA | c2 cA cdcA | c d2 c A2 G2 | g2 gf g2 gf | 
 gagd ed c2 | dBdB d g2 e | dBdB d g3 | g2 gf g2 gf | gagd ecdA | c2 c6- | cedc ABcA | GEGA cAcd | 
 eege agec | d2 d2- dded | c6 ||

